flaticon/grooming/toothbrush.svg

<svg xmlns="http://www.w3.org/2000/svg" width="32" height="32" viewBox="0 0 24 24">
    <path d="M 23.601562 14.609375 L 14.398438 14.609375 L 14.398438 9.808594 C 14.398438 8.847656 14.121094 8.089844 13.519531 7.609375 C 12.679688 6.929688 11.601562 7.007812 11.398438 7.007812 L 6.320312 7.007812 C 5.160156 7.007812 4.441406 6.808594 4.160156 6.367188 C 3.839844 5.886719 4.160156 5.207031 4.160156 5.207031 C 4.238281 5.046875 4.199219 4.847656 4.078125 4.6875 C 3.960938 4.566406 3.71875 4.566406 3.558594 4.648438 C 3.480469 4.726562 1.078125 6.046875 0.839844 7.847656 C 0.757812 8.390625 0.878906 8.914062 1.203125 9.40625 C 1.203125 9.40625 1.203125 9.40625 1.199219 9.40625 C 0.960938 9.40625 0.800781 9.566406 0.800781 9.808594 L 0.800781 14.699219 C 0.324219 14.882812 0 15.339844 0 15.886719 L 0 18.128906 C 0 18.847656 0.558594 19.40625 1.28125 19.40625 L 23.601562 19.40625 C 23.839844 19.40625 24 19.246094 24 19.007812 L 24 15.007812 C 24 14.769531 23.839844 14.609375 23.601562 14.609375 Z M 13.601562 10.207031 L 13.601562 14.609375 L 12.800781 14.609375 L 12.800781 10.207031 Z M 11.199219 14.609375 L 11.199219 10.207031 L 12 10.207031 L 12 14.609375 Z M 9.601562 14.609375 L 9.601562 10.207031 L 10.398438 10.207031 L 10.398438 14.609375 Z M 8 14.609375 L 8 10.207031 L 8.800781 10.207031 L 8.800781 14.609375 Z M 6.398438 14.609375 L 6.398438 10.207031 L 7.199219 10.207031 L 7.199219 14.609375 Z M 4.800781 14.609375 L 4.800781 10.207031 L 5.601562 10.207031 L 5.601562 14.609375 Z M 3.199219 14.609375 L 3.199219 10.207031 L 4 10.207031 L 4 14.609375 Z M 1.679688 7.96875 C 1.800781 7.128906 2.558594 6.40625 3.160156 5.929688 C 3.160156 6.207031 3.28125 6.488281 3.441406 6.769531 C 3.878906 7.449219 4.878906 7.808594 6.320312 7.808594 L 11.441406 7.808594 C 11.441406 7.808594 12.320312 7.726562 12.921875 8.207031 C 13.28125 8.488281 13.480469 8.886719 13.519531 9.40625 L 2.238281 9.40625 C 1.800781 8.929688 1.601562 8.449219 1.679688 7.96875 Z M 1.800781 10.085938 C 1.878906 10.167969 1.960938 10.207031 2.078125 10.207031 L 2.398438 10.207031 L 2.398438 14.609375 L 1.601562 14.609375 L 1.601562 9.894531 C 1.664062 9.960938 1.730469 10.023438 1.800781 10.085938 Z M 0.800781 18.128906 L 0.800781 15.886719 C 0.800781 15.609375 1 15.40625 1.28125 15.40625 C 1.28125 15.40625 9.929688 15.40625 16.398438 15.40625 L 16.398438 18.609375 L 1.28125 18.609375 C 1 18.609375 0.800781 18.40625 0.800781 18.128906 Z M 17.199219 18.609375 L 17.199219 15.40625 C 18.152344 15.40625 18.941406 15.40625 19.601562 15.40625 L 19.601562 18.609375 Z M 23.199219 18.609375 L 20.398438 18.609375 L 20.398438 15.40625 C 21.023438 15.40625 23.199219 15.40625 23.199219 15.40625 Z M 23.199219 18.609375"/>
</svg>

<svg xmlns="http://www.w3.org/2000/svg" width="32" height="32" viewBox="0 0 24 24">
    <path d="M23.602 14.61h-9.204V9.808c0-.961-.277-1.72-.878-2.2-.84-.68-1.918-.601-2.122-.601H6.32c-1.16 0-1.879-.2-2.16-.64-.32-.481 0-1.161 0-1.161.078-.16.04-.36-.082-.52-.117-.12-.36-.12-.52-.039-.078.079-2.48 1.399-2.718 3.2-.082.543.039 1.066.363 1.558H1.2c-.238 0-.398.16-.398.403v4.89c-.477.184-.801.64-.801 1.188v2.242c0 .719.559 1.277 1.281 1.277h22.32c.239 0 .399-.16.399-.398v-4c0-.238-.16-.399-.398-.399zm-10-4.403v4.402H12.8v-4.402zm-2.403 4.402v-4.402H12v4.402zm-1.597 0v-4.402h.796v4.402zM8 14.61v-4.402h.8v4.402zm-1.602 0v-4.402H7.2v4.402zm-1.597 0v-4.402h.8v4.402zm-1.602 0v-4.402H4v4.402zM1.68 7.97c.122-.84.88-1.563 1.481-2.04 0 .278.121.56.281.84.438.68 1.438 1.04 2.88 1.04h5.12s.88-.082 1.48.398c.36.281.56.68.599 1.2H2.238c-.437-.477-.636-.958-.558-1.438zm.122 2.117c.078.082.16.121.277.121h.32v4.402h-.796V9.895c.062.066.128.128.199.19zm-1 8.043v-2.242c0-.278.199-.48.48-.48h15.117v3.202H1.281a.464.464 0 0 1-.48-.48zm16.398.48v-3.203h2.403v3.203zm6 0h-2.8v-3.203h2.8zm0 0"/>
</svg>
